X:380
T: ZU FRANKFURT VOR DEM THORE
N: E0213
O: Europa, Mitteleuropa, Deutschland, Kreis Limburg; Unter - Lahnkreis
R: erzaehlendes Volks - Lied, Mahn -, Moral - Lied, Strafe
M: 4/4
L: 1/8
K: G
D2 | G2B2A2e2 | dcA2z2
d2 | B3AG2B2 | A4z2
GB | A2GBA2G2 | Ged2z2
dc | BdBGA2BA | G4z2

